project/images/official/editable/553.svg

<?xml version="1.0" encoding="UTF-8" standalone="no"?>
<svg
   width="35pt"
   height="35pt"
   viewBox="0 0 35 35"
   version="1.1"
   id="svg3513"
   xmlns="http://www.w3.org/2000/svg"
   xmlns:svg="http://www.w3.org/2000/svg">
  <defs
     id="defs3517">
    <clipPath
       id="clip1">
      <path
         d="M 0,0.371094 H 485.92969 V 184 H 0 Z m 0,0"
         id="path6178" />
    </clipPath>
  </defs>
  <g
     id="layer2"
     style="display:inline"
     transform="matrix(0.74036996,0,0,1,-12.282368,-0.38813594)" />
  <rect
     style="display:inline;fill:#ffffff;stroke:none;stroke-width:0;stroke-linecap:square;stroke-miterlimit:4;stroke-dasharray:none;stroke-opacity:1"
     id="rect3621"
     width="35"
     height="35"
     x="-1.7763568e-15"
     y="-5.5511151e-17" />
  <rect
     style="display:inline;fill:none;stroke:#000000;stroke-width:0.123664;stroke-linecap:square;stroke-miterlimit:4;stroke-dasharray:none;stroke-opacity:1"
     id="rect3621-4"
     width="33.876335"
     height="33.876335"
     x="0.56183243"
     y="0.56183237" />
  <g
     id="surface1"
     transform="translate(2.9804723,3.3261719)">
    <path
       style="fill:#211e1e;fill-opacity:1;fill-rule:nonzero;stroke:none"
       d="m 21.484375,20.347656 -6.691406,-3.863281 v 3.566406 c 0,0.1875 -0.152344,0.34375 -0.34375,0.34375 -0.0625,0 -0.121094,-0.01953 -0.171875,-0.04687 L 7.585938,16.484375 v 3.566406 c 0,0.1875 -0.15625,0.34375 -0.34375,0.34375 -0.0625,0 -0.121094,-0.01953 -0.171876,-0.04687 L 0.359375,16.5 v 11.84375 h 28.316406 l 0.0039,-7.996094 -6.695313,-3.863281 v 3.566406 c 0,0.1875 -0.152344,0.34375 -0.34375,0.34375 -0.0625,0 -0.105469,-0.01563 -0.15625,-0.04687"
       id="path6799" />
    <path
       style="fill:#211e1e;fill-opacity:1;fill-rule:nonzero;stroke:none"
       d="M 20.269531,18.660156 19.703125,2.226562 18.128906,2.242188 17.351562,16.980469 20.269531,18.660156"
       id="path6801" />
    <path
       style="fill:#211e1e;fill-opacity:1;fill-rule:nonzero;stroke:none"
       d="M 12.542969,18.347656 11.980469,0.00390625 H 10.398438 L 9.625,16.671875 l 2.917969,1.675781"
       id="path6803" />
    <path
       style="fill:#ffffff;fill-opacity:1;fill-rule:nonzero;stroke:none"
       d="M 2.929688,25.75 H 8.9375 V 23.171875 H 2.929688 Z m 0,0"
       id="path6805" />
    <path
       style="fill:#ffffff;fill-opacity:1;fill-rule:nonzero;stroke:none"
       d="m 17.527344,23.175781 -6.007813,-0.0039 V 25.75 h 6.007813 v -2.574219"
       id="path6807" />
    <path
       style="fill:#ffffff;fill-opacity:1;fill-rule:nonzero;stroke:none"
       d="M 26.109375,23.171875 V 25.75 h -6.007813 v -2.574219 l 6.007813,-0.0039"
       id="path6809" />
  </g>
</svg>

<?xml version="1.0" encoding="UTF-8"?>
<svg xmlns="http://www.w3.org/2000/svg" xmlns:xlink="http://www.w3.org/1999/xlink" width="29pt" height="29pt" viewBox="0 0 29 29" version="1.1">
<g id="surface1">
<path style=" stroke:none;fill-rule:nonzero;fill:rgb(13.729858%,12.159729%,12.548828%);fill-opacity:1;" d="M 21.484375 20.347656 L 14.792969 16.484375 L 14.792969 20.050781 C 14.792969 20.238281 14.640625 20.394531 14.449219 20.394531 C 14.386719 20.394531 14.328125 20.375 14.277344 20.347656 L 7.585938 16.484375 L 7.585938 20.050781 C 7.585938 20.238281 7.429688 20.394531 7.242188 20.394531 C 7.179688 20.394531 7.121094 20.375 7.070312 20.347656 L 0.359375 16.5 L 0.359375 28.34375 L 28.675781 28.34375 L 28.679688 20.347656 L 21.984375 16.484375 L 21.984375 20.050781 C 21.984375 20.238281 21.832031 20.394531 21.640625 20.394531 C 21.578125 20.394531 21.535156 20.378906 21.484375 20.347656 "/>
<path style=" stroke:none;fill-rule:nonzero;fill:rgb(13.729858%,12.159729%,12.548828%);fill-opacity:1;" d="M 20.269531 18.660156 L 19.703125 2.226562 L 18.128906 2.242188 L 17.351562 16.980469 L 20.269531 18.660156 "/>
<path style=" stroke:none;fill-rule:nonzero;fill:rgb(13.729858%,12.159729%,12.548828%);fill-opacity:1;" d="M 12.542969 18.347656 L 11.980469 0.00390625 L 10.398438 0.00390625 L 9.625 16.671875 L 12.542969 18.347656 "/>
<path style=" stroke:none;fill-rule:nonzero;fill:rgb(100%,100%,100%);fill-opacity:1;" d="M 2.929688 25.75 L 8.9375 25.75 L 8.9375 23.171875 L 2.929688 23.171875 Z M 2.929688 25.75 "/>
<path style=" stroke:none;fill-rule:nonzero;fill:rgb(100%,100%,100%);fill-opacity:1;" d="M 17.527344 23.175781 L 11.519531 23.171875 L 11.519531 25.75 L 17.527344 25.75 L 17.527344 23.175781 "/>
<path style=" stroke:none;fill-rule:nonzero;fill:rgb(100%,100%,100%);fill-opacity:1;" d="M 26.109375 23.171875 L 26.109375 25.75 L 20.101562 25.75 L 20.101562 23.175781 L 26.109375 23.171875 "/>
</g>
</svg>
